X: 21
T: HORNPIPE: Seanbhean Bhocht
T: An tSeanbhean Bhocht
C: C: Trad.; S: Various
C: Set Leaders: Sophie, Anton
Z: Anton Zille ed.; Tommy McCarty at The Session
N: https://thesession.org/members/26966/sets/92011
R: Hornpipe
M: 4/4
L: 1/8
Q: 1/2=82
K: Gmaj
|:(3ABc|dggf gedc|B2 G2 GBdB|ceab afdB|c2 A2 A2 Bc|
dggf g2BA|GDBD GBdB|ceaf gedc|1 B2 G2 G2:|2 B2 G2 G2 dc||
|:Bdgd Bdgd|BdcA GBdB|ceae ceae|cABG A2 dc|
(3Bcd gd (3Bcd gd|(3Bcd cA GBdB|ceaf gedc|1 B2 G2 G2 dc:|2 B2 G2 G2 ga||
|:(3bag af gedc|B2 G2 G2ab|(3c'ba bg afdB|c2 A2 A2 ga|
(3bag af g2 BA|GDBD GBdB|ceaf gedc|1 B2 G2 G2 ga:|2 B2 G2 G2||

